X:2917
T:Plocka vill jag skogsviol
C:anon.
O:Sweden
Z:Transcribed by Frank Nordberg - http://www.musicaviva.com
F:http://abc.musicaviva.com/tunes/sweden/plocka-vill-jag.abc
M:C
L:1/4
K:C
"C"G>FEF|"C"G>FEF|"C"GA"G7"FD|"C"C3 z:|
w:Plock-a vill jag skogs-vi-ol och ljung-ens fi-na frans,
w:plock-a, plock-a fam-nen full och bin-da till en krans.
"Am"c>BAB|"Am"A2E2|"Dm"F>E"G7"DA|"C"G"F7"F"C"EG|
w:Vin-ter-gr\"on och tim-je min-na mig om v\"an-nen min och
"F"c>BAB|"Dm7"cBcA|"C/G"GA"G7"FD|"C"C3 z|]
w:m\aang-a, m\aang-a tan-kar jag i kran-sen bin-der in.
W:
W:Plocka vill jag skogsviol och ljungens fina frans,
W:plocka, plocka famnen full och binda till en krans.
W:Vintergr\"on och timje minna mig om v\"annen min och
W:m\aanga, m\aanga tankar jag i kransen binder in.
W:
W:
W:  From Musica Viva - http://www.musicaviva.com
W:  the Internet center for free sheet music downloads.


